src/assets/icons/Values__title-icon.svg

<svg width="18" height="19" viewBox="0 0 18 19" fill="none" xmlns="http://www.w3.org/2000/svg">
<path d="M15.6795 10.0836C15.319 8.47562 13.5807 7.62888 11.7865 8.0332C11.4112 8.11755 11.0492 7.88951 11.0089 7.54328C10.8195 5.88931 9.33868 4.70799 7.53599 4.95318C5.46886 5.2358 3.91829 7.1035 4.13037 8.95509L4.86433 15.3255C4.91185 15.7368 5.31251 15.9893 5.75841 15.8887L12.6627 14.3305C14.671 13.8778 16.0913 11.928 15.6795 10.0836Z" fill="url(#paint0_linear_17_91)"/>
<path d="M14.2599 2.36331C13.9623 1.81653 13.2374 1.6319 12.6206 1.89511C12.4875 1.95183 12.3368 1.89707 12.2849 1.77307C12.0453 1.19855 11.3804 0.877974 10.7442 1.08527C10.0147 1.32349 9.63786 2.08995 9.9061 2.73311L10.8305 4.94559C10.8903 5.08846 11.0633 5.15134 11.2165 5.08591L13.5897 4.07218C14.28 3.77749 14.6007 2.99059 14.2599 2.36331Z" fill="url(#paint1_linear_17_91)"/>
<defs>
<linearGradient id="paint0_linear_17_91" x1="7.79178" y1="-0.83807" x2="18.7143" y2="11.3941" gradientUnits="userSpaceOnUse">
<stop stop-color="#B936F5"/>
<stop offset="1" stop-color="#C64C85"/>
<stop offset="1" stop-color="#F1005B"/>
</linearGradient>
<linearGradient id="paint1_linear_17_91" x1="10.2425" y1="-0.987663" x2="15.4316" y2="2.73291" gradientUnits="userSpaceOnUse">
<stop stop-color="#B936F5"/>
<stop offset="1" stop-color="#C64C85"/>
<stop offset="1" stop-color="#F1005B"/>
</linearGradient>
</defs>
</svg>

<svg width="18" height="19" fill="none" xmlns="http://www.w3.org/2000/svg"><path d="M15.68 10.084c-.361-1.608-2.1-2.455-3.893-2.05-.376.084-.738-.144-.778-.49-.19-1.655-1.67-2.836-3.473-2.59-2.067.282-3.618 2.15-3.406 4.001l.734 6.37c.048.412.449.664.894.564l6.905-1.558c2.008-.453 3.428-2.403 3.017-4.247Z" fill="url(#a)"/><path d="M14.26 2.363c-.298-.546-1.023-.731-1.64-.468-.132.057-.283.002-.335-.122a1.248 1.248 0 0 0-1.54-.688c-.73.238-1.107 1.005-.839 1.648l.925 2.213c.06.142.232.205.386.14l2.373-1.014c.69-.295 1.01-1.081.67-1.709Z" fill="url(#b)"/><defs><linearGradient id="a" x1="7.792" y1="-.838" x2="18.714" y2="11.394" gradientUnits="userSpaceOnUse"><stop stop-color="#B936F5"/><stop offset="1" stop-color="#C64C85"/><stop offset="1" stop-color="#F1005B"/></linearGradient><linearGradient id="b" x1="10.242" y1="-.988" x2="15.432" y2="2.733" gradientUnits="userSpaceOnUse"><stop stop-color="#B936F5"/><stop offset="1" stop-color="#C64C85"/><stop offset="1" stop-color="#F1005B"/></linearGradient></defs></svg>
